X:1
T:Core 'ngrato
T:Core 'ngrato
T:Salvatore Cardillo
T:CA©2020
T:CA©2020
T:CA©2020
T:CA©2020
T:CA©2020
T:CA©2020
Z:CA©2020
%%score 1 { ( 2 4 ) | 3 }
L:1/8
Q:1/4=70
M:4/4
K:Eb
V:1 treble-8 nm="Ténor" snm="T"
V:2 treble nm="Piano" snm="Pno."
V:4 treble 
V:3 bass 
V:1
|:"^Andante moderato con sentimento" z8 | z8 | z8 | z8 | z8 | z8 |[Q:1/4=72]"^Rall." z8 || %7
w: |||||||
w: |||||||
[Q:1/4=70]"^A tempo" z4!f! z2 G3/2 G/ | B4- B z B3/2 B/ | c4- c c d e | %10
w: Ca- ta-|ri- * Ca- ta-|re- * pec- chè me|
w: Ca- ta-|ri,- * Ca- ta-|ri, * tu nun 'o|
 d/ c/ B/ c/ d3/2 B/ d2 d z/ d/ | c2- c/ B/ A/ B/ c c e c | B/ A/ G/ A/ B2 z B A G | A3 G F G A B | %14
w: di- ce- sti pa- ro- lea- ma- re, pec-|chè- * me par- lee'o co- re me tur-|mien- te, Ca- ta- ri? Nun te scur-|dà- ca t'ag- gio da- te|
w: sa- ie ca 'nfin' int'a na chie- sa io|so'- * tra- su- to eag- gio pri- toa|Di- o, Ca- ta- ri. E l'ag- gio|dit- to pu- rea'o cun- fes-|
 G/ F/[Q:1/4=70]"_Rall." E/ F/ G G !fermata!F3[Q:1/4=70]"_A tempo" E | E2 z G/ G/ B2 z B/ B/ | %16
w: co- re, Ca- ta- ri, nun te scur-|dà! Ca- ta- ri, Ca- ta-|
w: so- re:I' stoa suf- fri pe' chel- la|là! Stoa suf- fri, Stoa suf-|
 d c c d B/ c/ d z d/ d/ | f e e f d/ e/ f3 |!ff![Q:1/4=60] e z f g f e[Q:1/4=70] d/ c/ =B/ c/ | %19
w: ri, che ve- nea di- ce- re stu par-|là ca me dà spa- se- me?|Tu nun 'nce pien- zea stu du- lo- re|
w: fri, nun ce po' cre- de- re, stoa suf-|fri tu- te li stra- * zie!|E'o cun- fes- so- re, ch'è per- so- na|
 e2 e2 z e d/ c/ B/ A/ | G/ G/ A/ B/ G2[Q:1/4=72]"_Rall."[Q:1/4=60] B4 | B6 z2 | %22
w: mi- o, tu nun 'nce pien- ze|tu nun te ne cu- *|re.|
w: san- ta, m'ha dit- to: "Fi- glio|mi- o, las- sa- la- *|sta".-|
!f![Q:1/4=70] g4- g d (3:2:6(d g) d/4 d/4g/4d/4 | c2 c2 z2!<(! d e | %24
w: Co- * re, co- * re * * *|'ngra- to, t'aie pi-|
w: ||
 f4-!<)! f d (3:2:6(d f) d/4 d/4f/4d/4 | B4!<(! B2 z2!<)! | (A4 e3!<(! A!<)! | G4-) G!<(! (B E G | %28
w: glia- * toa vi- * ta * * *|mi- a,|tut- t'è pas-|sa- * te nun 'nce|
w: ||||
 B4!<)!!>(! G3) (3(G/B/G/)!>)! |!mp! E4- E z z2 | z8 | z8 | z8 | z8 |!f! (A4 e3 A | %35
w: pien- ze * * *|chiu! *|||||tut- t'è pas-|
w: |||||||
 G4-) G[Q:1/4=60]!<(! (B e g | b4!<)!!>(! g3) (3(g/b/g/)!>)! |!mp! e4- e z z2 :| %38
w: sa- * te nun 'nce|pien- ze * * *|chiu!- *|
w: |||
V:2
|: g4- gd (3:2:6dg(d/4d/4g/4d/4 | c6) de | f4- fd (3:2:6df(d/4d/4f/4d/4 | B4)!<(! E2 D2!<)! | %4
 A2 e2- e!<(!A (3:2:6AeA/4A/4e/4A/4!<)! | G4- G!<(!(BEG | B6!<)!!>(! G2)!>)! || %7
!mp!({GBG} E[B,EG] [EGB][B,EG] [EGB]2 [B,EG]2) | z ([B,EG][EGB][B,EG] [EGB]2!<(! [B,EG]2) | %9
 z!<)! ([EG][EGc][EG] [EGc]2 [EG]2) | z ([DGB][GBd][DGB] [GBd]2 [DGB]2) | %11
 z ([EAc][Ace][EAc] [Ace]2 [EAc]2) | z ([B,EG][EGB][B,EG] [EGB]4) | %13
 z ([CFA][FAc][CFA]!<(! [FAc]4)!<)! | z ([B,EG] [EGB]2) (F3 E | %15
 [G,B,E])([G,B,E] [EGB]2) z ([B,DG] [DGB]2) | z [D^F=A] [FAc]2 z [DGB] [Bd]2 | %17
 z [CE=F] [EFA]2 z [A,CD] [B,DA]2 |!ff! e'2 f'g' f'e' (d'/c'/=b/c'/) | %19
 [eac'e']4- [eac'e']e d/c/B/A/ | G4 B4 | z ([G,B,E][EGB][G,B,E] [B,EG]2 [G,B,E]2) | %22
!f!"^Con anima" g4- gd (3:2:6dg(d/4d/4g/4d/4 | c6)!<(! de | f4-!<)! fd (3:2:6df(d/4d/4f/4d/4 | %25
 B4)!<(! E2 D2!<)! | A4 e3 A/(3A/4e/4A/4 |!ff! G4- G!<(!(BEG | B4!<)!!>(! G4)!>)! | %29
!mp!{GBG} E([B,EG] [EGB])[B,EG] [G,B,E] z z2 |!f!"^Con anima" g4- gd (3:2:6dg(d/4d/4g/4d/4 | %31
 c6)!<(! de | f4-!<)! fd (3:2:6df(d/4d/4f/4d/4 | B4)!<(! E2 D2!<)! | A4 e3!<(! A/(3A/4e/4A/4!<)! | %35
!ff! G4- G!<(!((BEG | B4!<)!!>(! G4))!>)! |!mp!{GBG} E([B,EG] [EGB])[B,EG] [G,B,E] z z2 :| %38
V:3
|:!ped!!f! (G,,[G,B,D][B,DG][G,B,D] [B,DG]2!ped-up! [G,B,D]2) | %1
!ped! (A,,[E,A,C][A,CE][E,A,C] [A,CE]2!ped-up! [E,A,C]2) | %2
!ped! [B,,,B,,][F,A,B,][A,B,D][F,A,B,] [A,B,D]2!ped-up! [F,A,B,]2 | %3
!ped! (G,,[E,G,B,][G,B,E][E,G,B,] [G,B,E]2!ped-up! [E,G,B,]2) | %4
!ped! (F,,[F,A,C][A,CE][F,A,C] [A,CE]2!ped-up! [F,A,C]2) | %5
!ped! ([B,,,B,,][B,,E,G,][E,G,B,][B,,E,G,] [E,G,B,]2!ped-up! [B,,E,G,]2) | %6
!ped! ([B,,,B,,][F,A,B,][A,B,D][F,A,B,] [A,B,D]2!ped-up! [F,A,B,]2) || E,,8 | E,,6 D,,2 | %9
 [C,,C,]8 | [B,,,B,,]8 | [A,,,A,,]8 | [G,,,G,,]8 | [F,,,F,,]8 | [B,,,B,,]4 !fermata![B,,,B,,]4 | %15
 E,,2 z2 [G,,G,]2 z2 | [^F,,^F,]2 z2 [G,,G,]2 z2 | _A,,2 z2 B,,2 z2 | %18
 [C,,C,]"^Stentate" [G,CEG]3 FE"^A tempo" (D/C/=B,/"_Marcato"C/) | %19
 [A,,,A,,]2 [E,A,C]2 [E,A,CE]E"^marcato" D/C/B,/A,/ | [B,,,B,,]6 !arpeggio!!>![B,,,B,,]2 | %21
!mp! [E,,B,,]8 |!ped! (G,,[G,B,D][B,DG][G,B,D] [B,DG]2!ped-up! [G,B,D]2) | %23
!ped! (A,,[E,A,C][A,CE][E,A,C] [A,CE]2!ped-up! [E,A,C]2) | %24
!ped! [B,,,B,,][F,A,B,][A,B,D][F,A,B,] [A,B,D]2!ped-up! [F,A,B,]2 | %25
!ped! (G,,[E,G,B,][G,B,E][E,G,B,] [G,B,E]2!ped-up! [E,G,B,]2) | %26
!ped! (F,,[F,A,C][A,CE][F,A,C] [A,CE]2!ped-up! [F,A,C]2) | %27
!ped! ([B,,,B,,][B,,E,G,][E,G,B,][B,,E,G,] [E,G,B,]2!ped-up! [B,,E,G,]2) | %28
!ped! ([B,,,B,,][F,A,B,][A,B,D][F,A,B,] [A,B,D]2!ped-up! [F,A,B,]2) | [E,,B,,]4- [E,,B,,] z z2 | %30
!ped! (G,,[G,B,D][B,DG][G,B,D] [B,DG]2!ped-up! [G,B,D]2) | %31
!ped! (A,,[E,A,C][A,CE][E,A,C] [A,CE]2!ped-up! [E,A,C]2) | %32
!ped! [B,,,B,,][F,A,B,][A,B,D][F,A,B,] [A,B,D]2!ped-up! [F,A,B,]2 | %33
!ped! (G,,[E,G,B,][G,B,E][E,G,B,] [G,B,E]2!ped-up! [E,G,B,]2) | %34
!ped! (F,,[F,A,C][A,CE][F,A,C] [A,CE]2!ped-up! [F,A,C]2) | %35
!ped! ([B,,,B,,][B,,E,G,][E,G,B,][B,,E,G,] [E,G,B,]2!ped-up! [B,,E,G,]2) | %36
!ped! ([B,,,B,,][F,A,B,][A,B,D][F,A,B,] [A,B,D]2!ped-up! [F,A,B,]2) | [E,,B,,]4- [E,,B,,] z z2 :| %38
V:4
|: x8 | x8 | x8 | x8 | C2 z2 z4 | x8 | x8 || x8 | x8 | x8 | x8 | x8 | x8 | x8 | %14
 z4 !fermata![A,D]4 | x8 | x8 | x8 | x8 | x8 | [B,E]6!>(! !arpeggio!!>![A,D]2!>)! | x8 | x8 | x8 | %24
 x8 | x8 | C2 z2 z4 | x8 | x8 | x8 | x8 | x8 | x8 | x8 | C2 z2 z4 | x8 | x8 | x8 :| %38

